src/assets/flags/DKK.svg

<svg width="512" height="512" viewBox="0 0 512 512" fill="none" xmlns="http://www.w3.org/2000/svg"><mask id="a" style="mask-type:alpha" maskUnits="userSpaceOnUse" x="0" y="0" width="512" height="512" viewBox="0 0 512 512"><path d="M256 512c141.385 0 256-114.615 256-256S397.385 0 256 0 0 114.615 0 256s114.615 256 256 256z" fill="#fff"/></mask><g mask="url(#a)"><path d="M0 0h512v512H0V0z" fill="#D80027"/><path d="M133.6 0v222.6H0v66.8h133.6V512h66.7V289.4H512v-66.8H200.3V0h-66.7z" fill="#EEE"/></g></svg>

<svg width="512" height="512" viewBox="0 0 512 512" fill="none" xmlns="http://www.w3.org/2000/svg">
<mask id="mask0_518_364" style="mask-type:alpha" maskUnits="userSpaceOnUse" x="0" y="0" width="512" height="512">
<path d="M256 512C397.385 512 512 397.385 512 256C512 114.615 397.385 0 256 0C114.615 0 0 114.615 0 256C0 397.385 114.615 512 256 512Z" fill="white"/>
</mask>
<g mask="url(#mask0_518_364)">
<path d="M0 0H512V512H0V0Z" fill="#D80027"/>
<path d="M133.6 0V222.6H0V289.4H133.6V512H200.3V289.4H512V222.6H200.3V0H133.6V0Z" fill="#EEEEEE"/>
</g>
</svg>
